X:1
T:29
T:Hugo Distler
T:Ps. 12 paraphrase Martin Luther (1483 – 1546) 
T:29.  O God, Look Down from Heav'n Above Ach Gott, vom Himmel sieh' darein The Feast of Reformation
T:Bärenreiter
T:Bärenreiter
T:Bärenreiter
T:Bärenreiter
T:Bärenreiter
T:Bärenreiter
C:Hugo Distler
Z:Ps. 12 paraphrase
Z:Martin Luther (1483 – 1546)
Z:Bärenreiter
%%score [ ( 1 2 ) ( 3 4 ) 5 ]
L:1/8
Q:1/4=120
M:4/4
K:G
V:1 treble nm="Sop."
V:2 treble 
V:3 treble nm="Alto 1"
V:4 treble 
V:5 treble nm="Alto 2"
V:1
 B4 c2 B2 | A2 e2 e2 c2 | B4 z2 B2 | c2 B2 A2 d2 | (c2 B2) !breath!A4 | B4 c2 B2 | A2 e2 e2 c2 | %7
w: 1. O God, look|down from heav- en|far and|see in love and|pi- * ty|Your saints be-|low, how few they|
w: 3. That sil- ver|which by fire sev'n|times is|test- ed we deem|pur- * er;|at- tend God's|word and His de-|
 B4 z2 B2 | c2 B2 A2 d2 | (c2 B2) !breath!A4 | A4 (BA) G2 | F2 E2 G2 A2 | B4 z2 G2 | A2 c2 B2 c2 | %14
w: are, a-|ban- doned, Thy poor|child- * ren.|Men hold _ Thy|word to be un-|true, ex-|tin- guished is the|
w: signs, life's|ma- ny fires en-|dur- * ing.|That word _ will|by the cross be|proved, and|all its pow'r and|
 A2 ^G2 !breath!A4 | A4 e2 c2 | d2 e2 (d2 c2) | !breath!B8!fine! || B2 c4 B2 | A2 e2 e2 (c2- | %20
w: faith in You|a- mong Your|earth- ly child- *|ren.|2. And then God|said, "I must a-|
w: light re- newed|to shine in|ev'- ry na- *|tion.|||
 cB A2) !breath!B2 B2 | c2 B2 A4 |[M:3/4] d2 (c2 BA |[M:4/4] B4) !breath!A4 | B2 c4 B2 | %25
w: * * * rise, the|poor and weak|are suff- * *|* 'ring;|their sighs and|
w: |||||
 A2 e2 e2 (c2- | cB A2) !breath!B2 B2 | c2 B2 A4 |[M:3/4] d2 (c2 BA |[M:4/4] B4) !breath!A4 | %30
w: tears have reached the|_ _ _ skies; I've|heard their loud|la- ment- * *|* ing.|
w: |||||
 A4 B2 G2 | F2 E G2 A !breath!B2 | G4 A2 c2 | Bc A4 ^G2 | !breath!A2 A2 e4 | c2 d4 e2 | %36
w: The heal- ing|Word shall be my plan,|re- fresh, re-|store, and com- fort|them and be|their strength in|
w: ||||||
[M:6/4] (d2 c2) B8!D.C.! |] %37
w: weak- * ness."|
w: |
V:2
 x8 | x8 | x8 | x8 | x8 | x8 | x8 | x8 | x8 | x8 | x8 | x8 | x8 | x8 | x8 | x8 | x8 | x8 || x8 | %19
 x8 | x8 | x8 |[M:3/4] x6 |[M:4/4] BA G2 ^F4 | x8 | x8 | x8 | x8 |[M:3/4] x6 |[M:4/4] BA G2 ^F4 | %30
 x8 | x8 | x8 | x8 | x8 | x8 |[M:6/4] x12 |] %37
V:3
 F4 G2 F2 | (EF) G2 A2 A2 | ^G4 z2 =G2 | G2 F2 E2 D2 | E4 !breath!F4 | F4 G2 F2 | (EF) G2 A2 A2 | %7
w: 1. O God, look|down _ from heav- en|far and|see in love and|pi- ty|Your saints be-|low, _ how few they|
w: 3. That sil- ver|which _ by fire sev'n|times is|test- ed we deem|pur- er;|at- tend God's|word _ and His de-|
 ^G4 z2 =G2 | G2 F2 E2 D2 | E4 !breath!F4 | E2 F4 E2 | D2 (CD) E2 F2 | G4 z2 E2 | D2 E2 =F2 G2 | %14
w: are, a-|ban- doned, Thy poor|child- ren.|Men hold Thy|word to _ be un-|true, ex-|tin- guished is the|
w: signs, life's|ma- ny fires en-|dur- ing.|That word will|by the _ cross be|proved, and|all its pow'r and|
 =F2 E2 !breath!E4 | =F4 G2 G2 | A3 G ^F4 | !breath!^G8 || z2 E2 G4 | F2 E2 B2 B2 | A4 !breath!G4 | %21
w: faith in You|a- mong Your|earth- ly child-|ren.|2. And then|God said, "I must|a- rise,|
w: light re- newed|to shine in|ev'- ry na-|tion.||||
 z2 E2 =F2 E2 |[M:3/4] D2 G2 (=F2- |[M:4/4] FEDC) !breath!D4 | z2 E2 G4 | F2 E2 B2 B2 | %26
w: the poor and|weak are suff-|* * * * 'ring;|their sighs|and tears have reached|
w: |||||
 A4 !breath!G4 | z2 E2 =F2 E2 |[M:3/4] D2 G2 (=F2- |[M:4/4] FEDC) !breath!D4 | z4 B,4 | %31
w: the skies;|I've heard their|loud la- ment-|* * * * ing.|The|
w: |||||
 D3 D !breath!C2 B,D- | DDCB, C2 D2 | !breath!EC (=FE/D/ CD) E2 | A,4 z2 A,2 | E2 D2 (G3 ^F | %36
w: heal- ing Word, the heal-|* ing Word, shall be my|plan, and com- * * * * fort|them and|be their strength _|
w: |||||
[M:6/4] ED) E4 F2 ^G4 |] %37
w: _ _ in weak- ness."|
w: |
V:4
 x8 | x8 | x8 | x8 | x8 | x8 | x8 | x8 | x8 | x8 | x8 | x8 | x8 | x8 | x8 | x8 | x8 | x8 || x8 | %19
w: |||||||||||||||||||
w: |||||||||||||||||||
 x8 | x8 | x8 |[M:3/4] x6 |[M:4/4] x8 | x8 | x8 | x8 | x8 |[M:3/4] x6 |[M:4/4] x8 | x8 | x8 | x8 | %33
w: ||||||||||||||
w: ||||||||||||||
 x8 | x8 | x4 G3 F |[M:6/4] ED E2 E4 E4 |] %37
w: ||||
w: ||strength _|_ _ in weak- ness."|
V:5
 B,4 A,2 B,2 | C3 B, C2 D2 | E4 z2 E2 | F2 (ED) C2 B,2 | C4 !breath!D4 | B,4 A,2 B,2 | %6
w: 1. O God, look|down from heav- en|far and|see in _ love and|pi- ty|Your saints be-|
w: 3. That sil- ver|which by fire sev'n|times is|test- ed _ we deem|pur- er;|at- tend God's|
 C3 B, C2 D2 | E4 z2 E2 | F2 (ED) C2 B,2 | C4 !breath!D4 | C4 B,2 A,2 | B,3 B, (CB,) A,2 | %12
w: low, how few they|are, a-|ban- doned, _ Thy poor|child- ren.|Men hold Thy|word to be _ un-|
w: word and His de-|signs, life's|ma- ny _ fires en-|dur- ing.|That word will|by the cross _ be|
 G,4 z2 C2 | =F2 E2 D2 C2 | (DC) B,2 !breath!A,4 | D4 C2 E2 | D2 C2 D4 | !breath!E8 || z8 | z8 | %20
w: true, ex-|tin- guished is the|faith _ in You|a- mong Your|earth- ly child-|ren.|||
w: proved, and|all its pow'r and|light _ re- newed|to shine in|ev'- ry na-|tion.|||
 z8 | z8 |[M:3/4] z6 |[M:4/4] z8 | z8 | z8 | z8 | z8 |[M:3/4] z6 |[M:4/4] z8 | z8 | z8 | z8 | z8 | %34
w: ||||||||||||||
w: ||||||||||||||
 z8 | z8 |[M:6/4] z12 |] %37
w: |||
w: |||

